X:110
T: Der Bauer ins Holz
N: A0472A
O: Europa, Mitteleuropa, Deutschland
N: Pet. Schoeffer II 1536 No. 56.
R: Romanze, Ballade, Lied
M: 4/2
L: 1/4
K: D
D2 | D2D2A2B2 | =c4B2
A2 | d2A2A2G=F | E2E2E2
D2 | D2D2A2B2 | =c4B2
A2 | A2G2=F2E2 | D2D2D2

